X: 3501
T: Biddy From Sligo
R: jig
M: 6/8
K: Dmajor
|:dcd AFA|BGB AFA|dzA ABA|g3 f2e|
dcd AFA|BGB AzB|fa/a/a agf|1 e3 f2e:|2 ede d2e||
faa baa|faa baa|fa/a/a faa|ede gfe|
faa baa|faa baa|fg/g/a gfe|1 d3 d2f:|2 dze f2e||

